parent.svg

<svg viewBox="0 0 24 24" xmlns="http://www.w3.org/2000/svg"><path d="m0 0h24v24h-24z" fill="none"/><path d="m7.33 6a2 2 0 1 0 -2-2 2 2 0 0 0 2 2zm11.85 5.8a1.62 1.62 0 0 0 -1.53-1.1h-.1a1.54 1.54 0 0 0 -.31.05h-.12l-.15.05h-.11l-3.1 1.76-3.04-4.56a2.69 2.69 0 0 0 -2.2-1h-3a2 2 0 0 0 -2 2v5.5h1.48v7.5h2v-6h1v6h2v-11.93l2.76 4.21a.86.86 0 0 0 .73.39.88.88 0 0 0 .44-.12l1.71-1-1 4.4h1.71v4h2.42v-3.95h1.7zm-1.58-1.91a1.62 1.62 0 1 0 -1.6-1.62 1.61 1.61 0 0 0 1.6 1.62z"/></svg>

<svg xmlns="http://www.w3.org/2000/svg" viewBox="0 0 24 24"><defs><style>.a{fill:none;}</style></defs><title>parent_icon</title><path class="a" d="M0,0H24V24H0Z"/><path d="M7.33,6a2,2,0,1,0-2-2A2,2,0,0,0,7.33,6Zm11.85,5.8a1.62,1.62,0,0,0-1.53-1.1h-.1a1.54,1.54,0,0,0-.31.05l-.12,0-.15.05-.11,0-3.1,1.76L10.72,8h0A2.69,2.69,0,0,0,8.52,7h-3a2,2,0,0,0-2,2v5.5H5V22H7V16H8v6h2V10.07l2.76,4.21a.86.86,0,0,0,.73.39.88.88,0,0,0,.44-.12l1.71-1-1,4.4h1.71v4h2.42V18h1.7ZM17.6,9.89A1.62,1.62,0,1,0,16,8.27,1.61,1.61,0,0,0,17.6,9.89Z"/></svg>
